X:1
T:Title
%%score ( 1 2 ) ( 3 4 )
L:1/8
Q:1/4=90
M:4/4
K:Eb
V:1 treble nm="Midi_20"
V:2 treble 
V:3 bass nm="Midi_20"
V:4 bass 
V:1
"^Wordsworth (76. 76. D)""^William Henry Monk\n(1823-89)""^Christopher Wordsworth\n(1807-85)""^O day of rest and gladness" G2 | %1
 B2 G2 A2 G2 | F4 E2 F2 | G2 B2 c2 c2 | B6 || B2 | e2 B2 c2 B2 | A4 G2 B2 | A2 G2 F2 F2 | E6 || %10
 E2 x6 | A2 A2 B2 c2 | _d4 c2 c2 | B2 B2 A2 G2 | F6 || F2 x6 | G2 B2 c2 d2 | e4 B2 B2 | %18
 A2 G2 F2 F2 | E6 |] %20
V:2
 E2 | F2 E2 E2 E2 | (E2 D2) E2 B,2 | E2 F2 E2 E2 | D6 || D2 | E2 E2 E2 E2 | (E2 F2) E2 E2 | %8
 E2 E2 E2 D2 | E6 || E2 x6 | E2 C2 F2 E2 | (_D2 E2) E2 C2 | D2 E2 F2 B,C | D6 || D2 x6 | %16
 E2 D2 A2 F2 | E4 E2 E2 | E2 E2 E2 D2 | E6 |] %20
V:3
 B,2 | B,2 B,2 A,2 B,2 | (C2 B,2) G,2 B,2 | B,2 F,2 G,2 =A,2 | B,6 || B,2 | B,2 E2 A,2 B,2 | %7
 (C2 B,2) B,2 G,2 | A,2 B,2 C2 B,2 | G,6 || %10
"^1. O day of rest and gladness,\nO day of joy and light,\nO balm of care and sadness,\nMost beautiful, most bright,\nOn thee the high and lowly\nBefore the eternal throne\nSing Holy, Holy, Holy,\nTo the great Three in One.\n\n2. On thee, at the creation,\nThe light first had its birth;\nOn thee, for our salvation,\nChrist rose from depths of earth;\nOn thee our Lord victorious\nThe Spirit sent from heaven;\nAnd thus on thee most glorious\nA triple light was given.\n" G,2 x6 | %11
 A,2 A,2 A,2 A,2 | (A,2 G,2) A,2 A,2 | %13
 A,2"^3. Today on weary nations\nThe heavenly manna falls,\nto holy convocations\nThe silver trumpet calls,\nWhere Gospel-light is growing\nWith pure and radiant beams,\nAnd living water flowing\nWith soul-refreshing streams.\n\n4. New graces ever gaining\nFrom this our day of rest,\nWe reach the rest remaining\nTo spirits of the blest:\nTo Holy Ghost be praises,\nTo Father, and to Son;\nThe Church her voice upraises\nTo Thee, blest Three in One." G,2 F,2 G,A, | %14
 B,6 || B,2 x6 | B,2 B,2 A,2 A,2 | (A,2 G,F,) G,2 B,2 | C2 G,2 C2 B,2 | G,6 |] %20
V:4
 E,2 | D,2 E,2 C,2 B,,2 | (A,,2 B,,2) E,2 D,2 | E,2 D,2 C,2 F,2 | B,,6 || A,2 | G,2 G,2 A,2 G,2 | %7
 (C,2 D,2) E,2 _D,2 | C,2 B,,2 A,,2 B,,2 | E,6 || E,2 C,2 F,2 _D,2 | C,2 (B,,2 E,2) A,,2 | %12
 A,,2 B,,2 C,2 D,2 | E,2 B,,6 | B,,2 x4 || E,2 G,2 F,2 B,,2 | C,4 E,2 G,,2 | A,,2 C,2 A,,2 B,,2 | %18
 E,6 x2 | x6 |] %20

